storage/app/icons/phosphoricons/bold/book-bold.svg

<svg xmlns="http://www.w3.org/2000/svg" fill="currentColor" viewBox="0 0 256 256"><path d="M208 20H72a36 36 0 0 0-36 36v168a12 12 0 0 0 12 12h144a12 12 0 0 0 0-24H60v-4a12 12 0 0 1 12-12h136a12 12 0 0 0 12-12V32a12 12 0 0 0-12-12m-12 152H72a35.6 35.6 0 0 0-12 2.06V56a12 12 0 0 1 12-12h124Z"/></svg>

<svg xmlns="http://www.w3.org/2000/svg" viewBox="0 0 256 256" fill="currentColor"><path d="M208,20H72A36,36,0,0,0,36,56V224a12,12,0,0,0,12,12H192a12,12,0,0,0,0-24H60v-4a12,12,0,0,1,12-12H208a12,12,0,0,0,12-12V32A12,12,0,0,0,208,20ZM196,172H72a35.59,35.59,0,0,0-12,2.06V56A12,12,0,0,1,72,44H196Z"/></svg>
